Lila_HD/emblems/scalable/emblem-feed.svg

<?xml version="1.0" encoding="UTF-8" standalone="no"?>
<svg
   xmlns:dc="http://purl.org/dc/elements/1.1/"
   xmlns:cc="http://creativecommons.org/ns#"
   xmlns:rdf="http://www.w3.org/1999/02/22-rdf-syntax-ns#"
   xmlns:svg="http://www.w3.org/2000/svg"
   xmlns="http://www.w3.org/2000/svg"
   xmlns:xlink="http://www.w3.org/1999/xlink"
   xmlns:sodipodi="http://sodipodi.sourceforge.net/DTD/sodipodi-0.dtd"
   xmlns:inkscape="http://www.inkscape.org/namespaces/inkscape"
   height="32"
   width="32"
   inkscape:version="1.0beta2 (2b71d25d45, 2019-12-03)"
   sodipodi:docname="emblem-feed.svg"
   id="svg6"
   version="1.1"
   viewBox="0 0 32 32">
  <metadata
     id="metadata10">
    <rdf:RDF>
      <cc:Work
         rdf:about="">
        <dc:format>image/svg+xml</dc:format>
        <dc:type
           rdf:resource="http://purl.org/dc/dcmitype/StillImage" />
        <dc:title></dc:title>
      </cc:Work>
    </rdf:RDF>
  </metadata>
  <sodipodi:namedview
     inkscape:document-rotation="0"
     inkscape:current-layer="g2574"
     inkscape:window-maximized="1"
     inkscape:window-y="21"
     inkscape:window-x="0"
     inkscape:cy="16"
     inkscape:cx="16"
     inkscape:zoom="25.774194"
     showgrid="false"
     id="namedview8"
     inkscape:window-height="1029"
     inkscape:window-width="1920"
     inkscape:pageshadow="2"
     inkscape:pageopacity="0"
     guidetolerance="10"
     gridtolerance="10"
     objecttolerance="10"
     borderopacity="1"
     bordercolor="#666666"
     pagecolor="#ffffff" />
  <defs
     id="defs3051">
    <style
       id="current-color-scheme"
       type="text/css">
      .ColorScheme-Text {
        color:#4d4d4d;
      }
      </style>
    <linearGradient
       y2="47.000011"
       x2="90"
       y1="47.000011"
       x1="6"
       gradientTransform="matrix(1.1013762,0,0,1.1013761,-4.967117,-3.0996675)"
       gradientUnits="userSpaceOnUse"
       id="linearGradient4071"
       xlink:href="#linearGradient6139-0"
       inkscape:collect="always" />
    <linearGradient
       id="linearGradient6139-0">
      <stop
         style="stop-color:#b2babc;stop-opacity:1"
         offset="0"
         id="stop6141-2" />
      <stop
         id="stop6151-0"
         offset="0.25"
         style="stop-color:#ffffff;stop-opacity:1;" />
      <stop
         id="stop6147-1"
         offset="0.5"
         style="stop-color:#96a1a4;stop-opacity:1" />
      <stop
         style="stop-color:#fbf9f9;stop-opacity:1;"
         offset="0.75"
         id="stop6149-4" />
      <stop
         style="stop-color:#b2b9bc;stop-opacity:1"
         offset="1"
         id="stop6143-4" />
    </linearGradient>
    <linearGradient
       gradientUnits="userSpaceOnUse"
       y2="88.171875"
       x2="94.5"
       y1="88.171875"
       x1="1.5"
       id="linearGradient4129"
       xlink:href="#linearGradient3832-0-6-1-1"
       inkscape:collect="always"
       gradientTransform="matrix(0.99479165,0,0,0.99479167,0.14895348,0.915026)" />
    <linearGradient
       id="linearGradient3832-0-6-1-1">
      <stop
         id="stop3834-6-3-7-1"
         offset="0"
         style="stop-color:#000000;stop-opacity:1;" />
      <stop
         style="stop-color:#000000;stop-opacity:0.58823532;"
         offset="0.1"
         id="stop3872-2-4" />
      <stop
         id="stop3844-6-2-7-6"
         offset="0.89999998"
         style="stop-color:#000000;stop-opacity:0.58823532;" />
      <stop
         id="stop3836-5-0-2-9"
         offset="1"
         style="stop-color:#000000;stop-opacity:1;" />
    </linearGradient>
    <radialGradient
       r="43.199203"
       fy="44.892841"
       fx="13.948145"
       cy="44.892841"
       cx="13.948145"
       gradientTransform="matrix(0.97005498,0,0,0.04893452,33.871095,80.664187)"
       gradientUnits="userSpaceOnUse"
       id="radialGradient7462"
       xlink:href="#linearGradient3737"
       inkscape:collect="always" />
    <linearGradient
       id="linearGradient3737">
      <stop
         id="stop3739"
         style="stop-color:#ffffff;stop-opacity:1"
         offset="0" />
      <stop
         id="stop3741"
         style="stop-color:#ffffff;stop-opacity:0"
         offset="1" />
    </linearGradient>
    <radialGradient
       r="43.199203"
       fy="44.892841"
       fx="13.948145"
       cy="44.892841"
       cx="13.948145"
       gradientTransform="matrix(0.88369993,0,0,0.04893452,32.295223,-89.847634)"
       gradientUnits="userSpaceOnUse"
       id="radialGradient7464"
       xlink:href="#linearGradient3737"
       inkscape:collect="always" />
    <linearGradient
       y2="14.514202"
       x2="50.527882"
       y1="-28.64156"
       x1="2.7713892"
       gradientUnits="userSpaceOnUse"
       id="linearGradient4767"
       xlink:href="#linearGradient3737"
       inkscape:collect="always" />
    <clipPath
       clipPathUnits="userSpaceOnUse"
       id="clipPath4156-4-1">
      <path
         style="opacity:0.6;fill:#ffffff;fill-opacity:1;stroke:none"
         d="m 27.046336,-55.695463 -14.21366,13.321486 h 0.06127 l 15.653407,21.770763 10.231384,-10.546177 C 38.561832,-32.30156 27.468089,-54.819245 27.046336,-55.695463 Z M 9.6468554,-39.382809 -5.2407289,-25.32124 15.987863,-7.8059573 26.372412,-18.382966 Z m 31.4906096,12.951445 -9.741259,9.713584 8.944804,12.4580526 7.780753,-7.5550056 z m -49.8397109,4.378822 -13.7541661,12.9822847 26.2830181,13.84571 0.06127,-0.0617 -0.122531,-0.0617 L 13.598503,-5.4007374 -8.7022409,-22.052595 Z m 38.0154159,7.400825 -9.802525,9.7752596 11.579232,9.5594001 7.62759,-7.40083 -8.669108,-11.0087257 z m 20.187073,5.6739697 -7.382526,7.2158 6.187844,8.54179 5.820249,-6.13651996 z m -32.195166,6.32154 -9.5574606,9.49772 13.6622686,7.1849703 7.933918,-7.6783603 z m 23.311629,2.37443004 -7.10683,6.93826996 8.362778,6.9074403 5.360756,-5.6739699 -0.06127,-0.0925 -0.0919,0.12335 -6.463539,-8.20258036 z m -8.730374,8.54178036 -7.505057,7.3391599 10.353916,5.45811 c 1.397496,-1.32103 5.67514,-6.12292 5.850882,-6.32154 z"
         id="path4158-0-8"
         inkscape:connector-curvature="0" />
    </clipPath>
  </defs>
  <g
     inkscape:label="Livello 1"
     id="layer1"
     transform="translate(0,-1026.5197)">
    <g
       transform="translate(-0.14895645,1026.1047)"
       style="display:inline"
       id="g2574">
      <g
         transform="matrix(0.32460733,0,0,0.32460733,0.60060425,0.61797585)"
         id="g858">
        <path
           style="display:inline;opacity:0.15;fill:#000000;fill-opacity:1;fill-rule:nonzero;stroke:none;stroke-width:0.994792"
           d="M 88.827524,0.915026 H 6.9703766 c -3.779062,0 -6.8214207,3.0423565 -6.8214207,6.8214254 V 89.593599 c 0,3.779072 3.0423587,6.821427 6.8214207,6.821427 H 88.827524 c 3.779072,0 6.821432,-3.042355 6.821432,-6.821427 V 7.7364514 c 0,-3.7790689 -3.04236,-6.8214254 -6.821432,-6.8214254 z"
           id="path3288"
           inkscape:connector-curvature="0" />
        <path
           inkscape:connector-curvature="0"
           id="path4085"
           d="M 88.188013,1.6611198 H 7.6098845 c -3.7200155,0 -6.71483666,2.9948192 -6.71483666,6.7148406 V 88.954088 c 0,3.720024 2.99482116,6.714843 6.71483666,6.714843 H 88.188013 c 3.720028,0 6.714848,-2.994819 6.714848,-6.714843 V 8.3759604 c 0,-3.7200214 -2.99482,-6.7148406 -6.714848,-6.7148406 z"
           style="display:inline;opacity:0.15;fill:#000000;fill-opacity:1;fill-rule:nonzero;stroke:none;stroke-width:0.994792" />
        <path
           style="display:inline;fill:url(#linearGradient4071);fill-opacity:1;fill-rule:nonzero;stroke:none;stroke-width:0.994792"
           d="M 87.548502,2.4072135 H 8.2494005 c -3.660976,0 -6.6082585,2.947282 -6.6082585,6.6082569 V 88.314581 c 0,3.660977 2.9472825,6.608258 6.6082585,6.608258 H 87.548502 c 3.660978,0 6.608254,-2.947281 6.608254,-6.608258 V 9.0154704 c 0,-3.6609749 -2.947276,-6.6082569 -6.608254,-6.6082569 z"
           id="rect4251-1"
           inkscape:connector-curvature="0" />
        <path
           style="display:inline;opacity:1;fill:#ff8c00;fill-opacity:1;fill-rule:nonzero;stroke:none;stroke-width:1.03711"
           d="m 11.375103,7.2689017 c -2.8658154,0 -5.1408449,2.3147559 -5.1408449,5.2306093 v 21.674325 7.32285 40.373748 c 1.1008198,1.703902 2.9785338,2.844143 5.1408449,2.844143 h 4.112672 65.802816 4.112671 c 2.162314,0 4.040028,-1.140241 5.140846,-2.844143 V 41.496686 34.173836 12.499511 c 0,-2.9158534 -2.275026,-5.2306093 -5.140846,-5.2306093 z"
           id="path3400-6"
           inkscape:connector-curvature="0"
           sodipodi:nodetypes="sscccsccscccsss" />
        <path
           inkscape:connector-curvature="0"
           id="path845"
           class="ColorScheme-Text"
           d="m 18.261706,19.02775 v 7.40931 a 51.865182,51.865183 0 0 1 51.86519,51.865191 h 7.409309 A 59.274492,59.274494 0 0 0 18.261706,19.02775 m 0,14.818625 v 7.40931 A 37.046566,37.046566 0 0 1 55.308268,78.302251 H 62.71758 A 44.455875,44.455876 0 0 0 18.261706,33.846375 m 0,14.818625 v 7.409316 a 22.22794,22.227892 0 0 1 22.227933,22.227935 h 7.409315 A 29.637249,29.637187 0 0 0 18.261706,48.665 m 5.556983,18.523283 a 5.5569848,5.5569848 0 0 0 -5.556983,5.556984 5.5569848,5.5569848 0 0 0 5.556983,5.556984 5.5569848,5.5569848 0 0 0 5.556984,-5.556984 5.5569848,5.5569848 0 0 0 -5.556984,-5.556984"
           style="color:#4d4d4d;fill:none;fill-opacity:0.992453;stroke:#000000;stroke-width:2.90877;stroke-linecap:round;stroke-miterlimit:4;stroke-dasharray:none;stroke-opacity:0.169811;paint-order:stroke markers fill" />
        <path
           inkscape:connector-curvature="0"
           id="path4989"
           d="m 9.9228609,5.6198544 c -3.1003879,0 -5.6384433,2.5262835 -5.6384433,5.6165966 v 68.917176 c 0,3.090315 2.5380554,5.616594 5.6384433,5.616594 H 86.314688 c 3.100391,0 5.638448,-2.526279 5.638448,-5.616594 V 11.236451 c 0,-3.0903121 -2.538057,-5.6165966 -5.638448,-5.6165966 z m 0,2.3073585 H 86.314688 c 1.878264,0 3.334561,1.472386 3.334561,3.3092381 v 68.917176 c 0,1.836854 -1.456297,3.309234 -3.334561,3.309234 H 9.9228609 c -1.8782644,0 -3.3345629,-1.47238 -3.3345629,-3.309234 V 11.236451 c 0,-1.8368521 1.4562985,-3.3092381 3.3345629,-3.3092381 z"
           style="color:#000000;font-style:normal;font-variant:normal;font-weight:normal;font-stretch:normal;font-size:medium;line-height:normal;font-family:Sans;-inkscape-font-specification:Sans;text-indent:0;text-align:start;text-decoration:none;text-decoration-line:none;letter-spacing:normal;word-spacing:normal;text-transform:none;writing-mode:lr-tb;direction:ltr;baseline-shift:baseline;text-anchor:start;display:inline;overflow:visible;visibility:visible;fill:#222222;fill-opacity:0.988679;stroke:none;stroke-width:2.36313;marker:none;enable-background:accumulate" />
        <path
           inkscape:connector-curvature="0"
           style="display:inline;opacity:0.658182;fill:url(#linearGradient4129);fill-opacity:1;fill-rule:nonzero;stroke:none;stroke-width:0.994792"
           d="m 1.641141,82.332506 v 5.96875 c 0,3.660977 2.9606061,6.621583 6.6215815,6.621583 H 87.535182 c 3.660978,0 6.621584,-2.960606 6.621584,-6.621583 v -5.96875 c 0,3.660977 -2.960606,6.621583 -6.621584,6.621583 H 8.2627225 c -3.6609754,0 -6.6215815,-2.960606 -6.6215815,-6.621583 z"
           id="path4118" />
        <rect
           style="opacity:0.55;fill:url(#radialGradient7462);fill-opacity:1;stroke:none;stroke-width:0.994792"
           id="rect4131"
           width="83.811203"
           height="4.2278652"
           x="5.4959588"
           y="80.747047"
           rx="0"
           ry="4.2278652" />
        <rect
           ry="4.2278652"
           rx="0"
           y="-89.764748"
           x="6.4460635"
           height="4.2278652"
           width="76.350258"
           id="rect4141"
           style="opacity:0.669;fill:url(#radialGradient7464);fill-opacity:1;stroke:none;stroke-width:0.994792"
           transform="rotate(90)" />
        <path
           style="color:#4d4d4d;fill:#ffffff;fill-opacity:0.992453;stroke:none;stroke-width:3.70466"
           d="m 18.261706,19.02775 v 7.40931 a 51.865182,51.865183 0 0 1 51.86519,51.865191 h 7.409309 A 59.274492,59.274494 0 0 0 18.261706,19.02775 m 0,14.818625 v 7.40931 A 37.046566,37.046566 0 0 1 55.308268,78.302251 H 62.71758 A 44.455875,44.455876 0 0 0 18.261706,33.846375 m 0,14.818625 v 7.409316 a 22.22794,22.227892 0 0 1 22.227933,22.227935 h 7.409315 A 29.637249,29.637187 0 0 0 18.261706,48.665 m 5.556983,18.523283 a 5.5569848,5.5569848 0 0 0 -5.556983,5.556984 5.5569848,5.5569848 0 0 0 5.556983,5.556984 5.5569848,5.5569848 0 0 0 5.556984,-5.556984 5.5569848,5.5569848 0 0 0 -5.556984,-5.556984"
           class="ColorScheme-Text"
           id="path4"
           inkscape:connector-curvature="0" />
        <rect
           transform="matrix(1.0636761,0,0,1.0422264,4.4218091,39.193603)"
           style="opacity:0.507812;fill:url(#linearGradient4767);fill-opacity:1;stroke:none"
           id="rect4146"
           width="75.965775"
           height="69.024437"
           x="2"
           y="-30"
           rx="3.9569874"
           ry="3.9569881"
           clip-path="url(#clipPath4156-4-1)" />
      </g>
    </g>
  </g>
</svg>

<?xml version="1.0" encoding="UTF-8"?>
<svg version="1.1" viewBox="0 0 32 32" xmlns="http://www.w3.org/2000/svg" xmlns:cc="http://creativecommons.org/ns#" xmlns:dc="http://purl.org/dc/elements/1.1/" xmlns:rdf="http://www.w3.org/1999/02/22-rdf-syntax-ns#" xmlns:xlink="http://www.w3.org/1999/xlink">
<metadata>
<rdf:RDF>
<cc:Work rdf:about="">
<dc:format>image/svg+xml</dc:format>
<dc:type rdf:resource="http://purl.org/dc/dcmitype/StillImage"/>
<dc:title/>
</cc:Work>
</rdf:RDF>
</metadata>
<defs>
<style type="text/css">.ColorScheme-Text {
        color:#4d4d4d;
      }</style>
<linearGradient id="linearGradient4071" x1="6" x2="90" y1="47" y2="47" gradientTransform="matrix(1.1014 0 0 1.1014 -4.9671 -3.0997)" gradientUnits="userSpaceOnUse">
<stop stop-color="#b2babc" offset="0"/>
<stop stop-color="#fff" offset=".25"/>
<stop stop-color="#96a1a4" offset=".5"/>
<stop stop-color="#fbf9f9" offset=".75"/>
<stop stop-color="#b2b9bc" offset="1"/>
</linearGradient>
<linearGradient id="linearGradient4129" x1="1.5" x2="94.5" y1="88.172" y2="88.172" gradientTransform="matrix(.99479 0 0 .99479 .14895 .91503)" gradientUnits="userSpaceOnUse">
<stop offset="0"/>
<stop stop-opacity=".58824" offset=".1"/>
<stop stop-opacity=".58824" offset=".9"/>
<stop offset="1"/>
</linearGradient>
<radialGradient id="radialGradient7462" cx="13.948" cy="44.893" r="43.199" gradientTransform="matrix(.97005 0 0 .048935 33.871 80.664)" gradientUnits="userSpaceOnUse" xlink:href="#linearGradient3737"/>
<linearGradient id="linearGradient3737">
<stop stop-color="#fff" offset="0"/>
<stop stop-color="#fff" stop-opacity="0" offset="1"/>
</linearGradient>
<radialGradient id="radialGradient7464" cx="13.948" cy="44.893" r="43.199" gradientTransform="matrix(.8837 0 0 .048935 32.295 -89.848)" gradientUnits="userSpaceOnUse" xlink:href="#linearGradient3737"/>
<linearGradient id="linearGradient4767" x1="2.7714" x2="50.528" y1="-28.642" y2="14.514" gradientUnits="userSpaceOnUse" xlink:href="#linearGradient3737"/>
<clipPath id="clipPath4156-4-1">
<path d="m27.046-55.695-14.214 13.321h0.06127l15.653 21.771 10.231-10.546c-0.2169-1.1522-11.311-23.67-11.732-24.546zm-17.399 16.313-14.888 14.062 21.229 17.515 10.385-10.577zm31.491 12.951-9.7413 9.7136 8.9448 12.458 7.7808-7.555zm-49.84 4.3788-13.754 12.982 26.283 13.846 0.06127-0.0617-0.12253-0.0617 9.8332-10.053-22.301-16.652zm38.015 7.4008-9.8025 9.7753 11.579 9.5594 7.6276-7.4008-8.6691-11.009zm20.187 5.674-7.3825 7.2158 6.1878 8.5418 5.8202-6.1365zm-32.195 6.3215-9.5575 9.4977 13.662 7.185 7.9339-7.6784zm23.312 2.3744-7.1068 6.9383 8.3628 6.9074 5.3608-5.674-0.06127-0.0925-0.0919 0.12335-6.4635-8.2026zm-8.7304 8.5418-7.5051 7.3392 10.354 5.4581c1.3975-1.321 5.6751-6.1229 5.8509-6.3215z" fill="#fff" opacity=".6"/>
</clipPath>
</defs>
<g transform="translate(0 -1026.5)">
<g transform="translate(-.14896 1026.1)">
<g transform="matrix(.32461 0 0 .32461 .6006 .61798)">
<path d="m88.828 0.91503h-81.857c-3.7791 0-6.8214 3.0424-6.8214 6.8214v81.857c0 3.7791 3.0424 6.8214 6.8214 6.8214h81.857c3.7791 0 6.8214-3.0424 6.8214-6.8214v-81.857c0-3.7791-3.0424-6.8214-6.8214-6.8214z" opacity=".15"/>
<path d="m88.188 1.6611h-80.578c-3.72 0-6.7148 2.9948-6.7148 6.7148v80.578c0 3.72 2.9948 6.7148 6.7148 6.7148h80.578c3.72 0 6.7148-2.9948 6.7148-6.7148v-80.578c0-3.72-2.9948-6.7148-6.7148-6.7148z" opacity=".15"/>
<path d="m87.549 2.4072h-79.299c-3.661 0-6.6083 2.9473-6.6083 6.6083v79.299c0 3.661 2.9473 6.6083 6.6083 6.6083h79.299c3.661 0 6.6083-2.9473 6.6083-6.6083v-79.299c0-3.661-2.9473-6.6083-6.6083-6.6083z" fill="url(#linearGradient4071)"/>
<path d="m11.375 7.2689c-2.8658 0-5.1408 2.3148-5.1408 5.2306v69.371c1.1008 1.7039 2.9785 2.8441 5.1408 2.8441h74.028c2.1623 0 4.04-1.1402 5.1408-2.8441v-69.371c0-2.9159-2.275-5.2306-5.1408-5.2306z" fill="#ff8c00"/>
<path class="ColorScheme-Text" d="m18.262 19.028v7.4093a51.865 51.865 0 0 1 51.865 51.865h7.4093a59.274 59.274 0 0 0-59.274-59.275m0 14.819v7.4093a37.047 37.047 0 0 1 37.047 37.047h7.4093a44.456 44.456 0 0 0-44.456-44.456m0 14.819v7.4093a22.228 22.228 0 0 1 22.228 22.228h7.4093a29.637 29.637 0 0 0-29.637-29.637m5.557 18.523a5.557 5.557 0 0 0-5.557 5.557 5.557 5.557 0 0 0 5.557 5.557 5.557 5.557 0 0 0 5.557-5.557 5.557 5.557 0 0 0-5.557-5.557" color="#4d4d4d" fill="none" stroke="#000" stroke-linecap="round" stroke-opacity=".16981" stroke-width="2.9088" style="paint-order:stroke markers fill"/>
<path d="m9.9229 5.6199c-3.1004 0-5.6384 2.5263-5.6384 5.6166v68.917c0 3.0903 2.5381 5.6166 5.6384 5.6166h76.392c3.1004 0 5.6384-2.5263 5.6384-5.6166v-68.917c0-3.0903-2.5381-5.6166-5.6384-5.6166zm0 2.3074h76.392c1.8783 0 3.3346 1.4724 3.3346 3.3092v68.917c0 1.8369-1.4563 3.3092-3.3346 3.3092h-76.392c-1.8783 0-3.3346-1.4724-3.3346-3.3092v-68.917c0-1.8369 1.4563-3.3092 3.3346-3.3092z" color="#000000" fill="#222" fill-opacity=".98868" style="text-decoration-line:none;text-indent:0;text-transform:none"/>
<path d="m1.6411 82.333v5.9688c0 3.661 2.9606 6.6216 6.6216 6.6216h79.272c3.661 0 6.6216-2.9606 6.6216-6.6216v-5.9688c0 3.661-2.9606 6.6216-6.6216 6.6216h-79.272c-3.661 0-6.6216-2.9606-6.6216-6.6216z" fill="url(#linearGradient4129)" opacity=".65818"/>
<rect x="5.496" y="80.747" width="83.811" height="4.2279" rx="0" ry="4.2279" fill="url(#radialGradient7462)" opacity=".55"/>
<rect transform="rotate(90)" x="6.4461" y="-89.765" width="76.35" height="4.2279" rx="0" ry="4.2279" fill="url(#radialGradient7464)" opacity=".669"/>
<path class="ColorScheme-Text" d="m18.262 19.028v7.4093a51.865 51.865 0 0 1 51.865 51.865h7.4093a59.274 59.274 0 0 0-59.274-59.275m0 14.819v7.4093a37.047 37.047 0 0 1 37.047 37.047h7.4093a44.456 44.456 0 0 0-44.456-44.456m0 14.819v7.4093a22.228 22.228 0 0 1 22.228 22.228h7.4093a29.637 29.637 0 0 0-29.637-29.637m5.557 18.523a5.557 5.557 0 0 0-5.557 5.557 5.557 5.557 0 0 0 5.557 5.557 5.557 5.557 0 0 0 5.557-5.557 5.557 5.557 0 0 0-5.557-5.557" color="#4d4d4d" fill="#fff" fill-opacity=".99245"/>
<rect transform="matrix(1.0637 0 0 1.0422 4.4218 39.194)" x="2" y="-30" width="75.966" height="69.024" rx="3.957" ry="3.957" clip-path="url(#clipPath4156-4-1)" fill="url(#linearGradient4767)" opacity=".50781"/>
</g>
</g>
</g>
</svg>
